Newaita-dark/apps/16/com.github.torikulhabib.nino.svg

<svg height="16" viewBox="0 0 16 16" width="16" xmlns="http://www.w3.org/2000/svg" xmlns:xlink="http://www.w3.org/1999/xlink"><linearGradient id="a" gradientTransform="matrix(.00416707 0 0 .031253 3.902978 6.719393)" gradientUnits="userSpaceOnUse" x1="254" x2="254" y1="233.5" y2="254.666672"><stop offset="0" stop-opacity=".27451"/><stop offset="1" stop-opacity="0"/></linearGradient><linearGradient id="b"><stop offset="0" stop-opacity=".313726"/><stop offset=".222222" stop-opacity=".27451"/><stop offset="1" stop-opacity="0"/></linearGradient><radialGradient id="c" cx="450.908936" cy="189.579361" gradientTransform="matrix(.00000009 -.0390662 -.0703192 -.00000005 18.788588 31.797666)" gradientUnits="userSpaceOnUse" r="21.166656" xlink:href="#b"/><radialGradient id="d" cx="450.908936" cy="189.579361" gradientTransform="matrix(-.00000009 .0390662 .0703192 .00000005 -8.865766 -3.763739)" gradientUnits="userSpaceOnUse" r="21.166656" xlink:href="#b"/><radialGradient id="e" cx="450.908936" cy="189.579361" gradientTransform="matrix(-.00000009 -.0390662 .0703192 -.00000005 -8.865766 31.797666)" gradientUnits="userSpaceOnUse" r="21.166656" xlink:href="#b"/><radialGradient id="f" cx="450.908936" cy="189.579361" gradientTransform="matrix(.00000009 .0390662 -.0703192 .00000005 18.788587 -3.76374)" gradientUnits="userSpaceOnUse" r="21.166656" xlink:href="#b"/><linearGradient id="g" gradientUnits="userSpaceOnUse" x1="4.96141375" x2="4.96141375" y1="14.0169675" y2="1.44805249998"><stop offset="0" stop-color="#66bb6a"/><stop offset="1" stop-color="#81c784"/></linearGradient><linearGradient id="h" gradientUnits="userSpaceOnUse" x1="10.91511025" x2="10.91511025" y1="14.0169675" y2="1.44805300003"><stop offset="0" stop-color="#f44336"/><stop offset="1" stop-color="#ef5350"/></linearGradient><radialGradient id="i" cx="450.908936" cy="189.579361" gradientTransform="matrix(.00000007 -.0390662 -.0527394 -.00000005 20.789345 31.797666)" gradientUnits="userSpaceOnUse" r="21.166656" xlink:href="#b"/><radialGradient id="j" cx="450.908936" cy="189.579361" gradientTransform="matrix(-.00000007 .0390662 .0527394 .00000005 1.040865 -3.763739)" gradientUnits="userSpaceOnUse" r="21.166656" xlink:href="#b"/><radialGradient id="k" cx="450.908936" cy="189.579361" gradientTransform="matrix(-.00000007 -.0390662 .0527394 -.00000005 1.040865 31.797666)" gradientUnits="userSpaceOnUse" r="21.166656" xlink:href="#b"/><radialGradient id="l" cx="450.908936" cy="189.579361" gradientTransform="matrix(.00000007 .0390662 -.0527394 .00000005 20.789344 -3.76374)" gradientUnits="userSpaceOnUse" r="21.166656" xlink:href="#b"/><path d="m4.300781 13.96875h1.320313v.734375h-1.320313zm0 0" fill="url(#a)"/><path d="m5.621094 14.015625h1.324218v-.660156h-1.324218zm0 0" fill="url(#c)"/><path d="m4.300781 14.015625h-1.324219v.664063h1.324219zm0 0" fill="url(#d)"/><path d="m4.300781 14.015625h-1.324219v-.660156h1.324219zm0 0" fill="url(#e)"/><path d="m5.621094 14.015625h1.324218v.664063h-1.324218zm0 0" fill="url(#f)"/><path d="m4.9375 1.453125c-.207031.003906-.398438.109375-.515625.28125l-2.980469 4.300781c-.300781.4375.011719 1.03125.542969 1.03125h1.328125v6.289063c0 .363281.292969.660156.65625.660156h1.984375c.363281 0 .660156-.296875.660156-.660156v-6.289063h1.324219c.53125 0 .84375-.59375.542969-1.03125l-2.976563-4.300781c-.128906-.183594-.339844-.289063-.566406-.28125zm0 0" fill="url(#g)"/><path d="m10.894531 14.011719c-.207031-.003907-.398437-.109375-.519531-.28125l-2.976562-4.300781c-.300782-.4375.011718-1.03125.542968-1.03125h1.324219v-6.289063c.003906-.363281.296875-.65625.660156-.65625h1.984375c.363282 0 .660156.292969.660156.65625v6.289063h1.324219c.53125 0 .84375.59375.542969 1.03125l-2.976562 4.300781c-.128907.183593-.339844.289062-.566407.28125zm0 0" fill="url(#h)"/><path d="m4.960938 1.453125c-.007813 0-.015626 0-.023438 0-.207031.003906-.398438.109375-.515625.28125l-2.980469 4.300781c-.105468.15625-.136718.332032-.105468.496094.015624-.085938.050781-.171875.105468-.253906l2.980469-4.296875c.117187-.171875.308594-.277344.515625-.285157.226562-.007812.4375.101563.566406.285157l2.976563 4.296875c.054687.082031.089843.167968.105469.253906.03125-.164062 0-.339844-.105469-.496094l-2.976563-4.300781c-.125-.179687-.328125-.285156-.542968-.28125zm0 0" fill="#fff" fill-opacity=".392157"/><path d="m9.925781 1.453125c-.363281 0-.65625.292969-.660156.65625v.246094c.003906-.363281.296875-.660157.660156-.660157h1.984375c.363282 0 .660156.296876.660156.660157v-.246094c0-.363281-.296874-.65625-.660156-.65625zm-1.984375 6.945313c-.433594 0-.722656.398437-.648437.78125.054687-.292969.308593-.539063.648437-.539063h1.324219v-.242187zm4.628906 0v.242187h1.324219c.339844 0 .59375.246094.648438.539063.074219-.382813-.214844-.78125-.648438-.78125zm0 0" fill="#fff" fill-opacity=".313726"/><path d="m1.347656 6.246094c-.105468.394531.1875.820312.636719.820312h1.328125v-.324218h-1.328125c-.324219 0-.566406-.226563-.636719-.496094zm7.230469 0c-.070313.269531-.316406.496094-.640625.496094h-1.324219v.324218h1.324219c.449219 0 .742188-.425781.640625-.820312zm-5.265625 6.78125v.328125c0 .363281.292969.660156.65625.660156h1.984375c.363281 0 .660156-.296875.660156-.660156v-.328125c0 .363281-.296875.660156-.660156.660156h-1.984375c-.363281 0-.65625-.296875-.65625-.660156zm0 0" fill-opacity=".235294"/><path d="m7.304688 8.894531c-.046876.171875-.023438.367188.09375.535157l2.976562 4.300781c.121094.171875.3125.277343.519531.28125.226563.007812.4375-.097657.566407-.28125l2.976562-4.300781c.117188-.167969.140625-.363282.097656-.535157-.019531.070313-.050781.140625-.097656.207031l-2.976562 4.300782c-.128907.183594-.339844.292968-.566407.285156-.207031-.007812-.398437-.113281-.519531-.285156l-2.976562-4.300782c-.042969-.066406-.078126-.136718-.09375-.207031zm0 0" fill-opacity=".235294"/><path d="m157.984913-168.50444c-6.624367.124988-12.748782 3.499666-16.498424 8.999141l-95.365893 137.611858c-9.624081 13.998663.374964 32.996849 17.373341 32.996849h42.495941v201.230784c0 11.62389 9.374105 21.122982 20.997995 21.122982h63.493937c11.62389 0 21.122983-9.499092 21.122983-21.122982v-201.230784h42.370954c16.998376 0 26.997421-18.998186 17.37334-32.996849l-95.240904-137.611858c-4.124607-5.874439-10.873962-9.249117-18.12327-8.999141zm0 0" fill="none" stroke="#212121" stroke-linecap="round" stroke-linejoin="round" stroke-width="3" transform="matrix(.031253 0 0 .031253 0 6.719392)"/><path d="m348.591711 233.332186c-6.624367-.124988-12.748782-3.499665-16.623412-8.99914l-95.240905-137.611859c-9.624081-13.998663.374964-32.996849 17.373341-32.996849h42.370953v-201.230783c.124988-11.62389 9.499093-20.997995 21.122983-20.997995h63.493937c11.62389 0 21.122983 9.374105 21.122983 20.997995v201.230783h42.370953c16.998377 0 26.997422 18.998186 17.373341 32.996849l-95.240905 137.611859c-4.124606 5.874439-10.873961 9.249117-18.123269 8.99914zm0 0" fill="none" stroke="#212121" stroke-linecap="round" stroke-linejoin="round" stroke-width="3" transform="matrix(.031253 0 0 .031253 0 6.719392)"/><path d="m10.914062 14.015625h.992188v-.660156h-.992188zm0 0" fill="url(#i)"/><path d="m10.914062 14.015625h-.992187v.664063h.992187zm0 0" fill="url(#j)"/><path d="m10.914062 14.015625h-.992187v-.660156h.992187zm0 0" fill="url(#k)"/><path d="m10.914062 14.015625h.992188v.664063h-.992188zm0 0" fill="url(#l)"/></svg>

<?xml version="1.0" encoding="UTF-8"?>
<svg xmlns="http://www.w3.org/2000/svg" xmlns:xlink="http://www.w3.org/1999/xlink" width="16px" height="16px" viewBox="0 0 16 16" version="1.1">
<defs>
<linearGradient id="linear0" gradientUnits="userSpaceOnUse" x1="254" y1="233.5" x2="254" y2="254.666672" gradientTransform="matrix(0.00416707,0,0,0.031253,3.902978,6.719393)">
<stop offset="0" style="stop-color:rgb(0%,0%,0%);stop-opacity:0.27451;"/>
<stop offset="1" style="stop-color:rgb(0%,0%,0%);stop-opacity:0;"/>
</linearGradient>
<radialGradient id="radial0" gradientUnits="userSpaceOnUse" cx="450.908936" cy="189.579361" fx="450.908936" fy="189.579361" r="21.166656" gradientTransform="matrix(0.0000000870852,-0.0390662,-0.0703192,-0.0000000507693,18.788588,31.797666)">
<stop offset="0" style="stop-color:rgb(0%,0%,0%);stop-opacity:0.313726;"/>
<stop offset="0.222222" style="stop-color:rgb(0%,0%,0%);stop-opacity:0.27451;"/>
<stop offset="1" style="stop-color:rgb(0%,0%,0%);stop-opacity:0;"/>
</radialGradient>
<radialGradient id="radial1" gradientUnits="userSpaceOnUse" cx="450.908936" cy="189.579361" fx="450.908936" fy="189.579361" r="21.166656" gradientTransform="matrix(-0.0000000870852,0.0390662,0.0703192,0.0000000507693,-8.865766,-3.763739)">
<stop offset="0" style="stop-color:rgb(0%,0%,0%);stop-opacity:0.313726;"/>
<stop offset="0.222222" style="stop-color:rgb(0%,0%,0%);stop-opacity:0.27451;"/>
<stop offset="1" style="stop-color:rgb(0%,0%,0%);stop-opacity:0;"/>
</radialGradient>
<radialGradient id="radial2" gradientUnits="userSpaceOnUse" cx="450.908936" cy="189.579361" fx="450.908936" fy="189.579361" r="21.166656" gradientTransform="matrix(-0.0000000870852,-0.0390662,0.0703192,-0.0000000507693,-8.865766,31.797666)">
<stop offset="0" style="stop-color:rgb(0%,0%,0%);stop-opacity:0.313726;"/>
<stop offset="0.222222" style="stop-color:rgb(0%,0%,0%);stop-opacity:0.27451;"/>
<stop offset="1" style="stop-color:rgb(0%,0%,0%);stop-opacity:0;"/>
</radialGradient>
<radialGradient id="radial3" gradientUnits="userSpaceOnUse" cx="450.908936" cy="189.579361" fx="450.908936" fy="189.579361" r="21.166656" gradientTransform="matrix(0.0000000870852,0.0390662,-0.0703192,0.0000000507693,18.788587,-3.76374)">
<stop offset="0" style="stop-color:rgb(0%,0%,0%);stop-opacity:0.313726;"/>
<stop offset="0.222222" style="stop-color:rgb(0%,0%,0%);stop-opacity:0.27451;"/>
<stop offset="1" style="stop-color:rgb(0%,0%,0%);stop-opacity:0;"/>
</radialGradient>
<linearGradient id="linear1" gradientUnits="userSpaceOnUse" x1="158.75" y1="233.5" x2="158.75" y2="-168.666672" gradientTransform="matrix(0.031253,0,0,0.031253,0,6.719392)">
<stop offset="0" style="stop-color:rgb(40.000001%,73.333335%,41.568628%);stop-opacity:1;"/>
<stop offset="1" style="stop-color:rgb(50.588238%,78.039217%,51.764709%);stop-opacity:1;"/>
</linearGradient>
<linearGradient id="linear2" gradientUnits="userSpaceOnUse" x1="349.25" y1="233.5" x2="349.25" y2="-168.666656" gradientTransform="matrix(0.031253,0,0,0.031253,0,6.719392)">
<stop offset="0" style="stop-color:rgb(95.686275%,26.274511%,21.176471%);stop-opacity:1;"/>
<stop offset="1" style="stop-color:rgb(93.725491%,32.549021%,31.37255%);stop-opacity:1;"/>
</linearGradient>
<radialGradient id="radial4" gradientUnits="userSpaceOnUse" cx="450.908936" cy="189.579361" fx="450.908936" fy="189.579361" r="21.166656" gradientTransform="matrix(0.0000000653139,-0.0390662,-0.0527394,-0.0000000507693,20.789345,31.797666)">
<stop offset="0" style="stop-color:rgb(0%,0%,0%);stop-opacity:0.313726;"/>
<stop offset="0.222222" style="stop-color:rgb(0%,0%,0%);stop-opacity:0.27451;"/>
<stop offset="1" style="stop-color:rgb(0%,0%,0%);stop-opacity:0;"/>
</radialGradient>
<radialGradient id="radial5" gradientUnits="userSpaceOnUse" cx="450.908936" cy="189.579361" fx="450.908936" fy="189.579361" r="21.166656" gradientTransform="matrix(-0.0000000653139,0.0390662,0.0527394,0.0000000507693,1.040865,-3.763739)">
<stop offset="0" style="stop-color:rgb(0%,0%,0%);stop-opacity:0.313726;"/>
<stop offset="0.222222" style="stop-color:rgb(0%,0%,0%);stop-opacity:0.27451;"/>
<stop offset="1" style="stop-color:rgb(0%,0%,0%);stop-opacity:0;"/>
</radialGradient>
<radialGradient id="radial6" gradientUnits="userSpaceOnUse" cx="450.908936" cy="189.579361" fx="450.908936" fy="189.579361" r="21.166656" gradientTransform="matrix(-0.0000000653139,-0.0390662,0.0527394,-0.0000000507693,1.040865,31.797666)">
<stop offset="0" style="stop-color:rgb(0%,0%,0%);stop-opacity:0.313726;"/>
<stop offset="0.222222" style="stop-color:rgb(0%,0%,0%);stop-opacity:0.27451;"/>
<stop offset="1" style="stop-color:rgb(0%,0%,0%);stop-opacity:0;"/>
</radialGradient>
<radialGradient id="radial7" gradientUnits="userSpaceOnUse" cx="450.908936" cy="189.579361" fx="450.908936" fy="189.579361" r="21.166656" gradientTransform="matrix(0.0000000653139,0.0390662,-0.0527394,0.0000000507693,20.789344,-3.76374)">
<stop offset="0" style="stop-color:rgb(0%,0%,0%);stop-opacity:0.313726;"/>
<stop offset="0.222222" style="stop-color:rgb(0%,0%,0%);stop-opacity:0.27451;"/>
<stop offset="1" style="stop-color:rgb(0%,0%,0%);stop-opacity:0;"/>
</radialGradient>
</defs>
<g id="surface1">
<path style=" stroke:none;fill-rule:nonzero;fill:url(#linear0);" d="M 4.300781 13.96875 L 5.621094 13.96875 L 5.621094 14.703125 L 4.300781 14.703125 Z M 4.300781 13.96875 "/>
<path style=" stroke:none;fill-rule:nonzero;fill:url(#radial0);" d="M 5.621094 14.015625 L 6.945312 14.015625 L 6.945312 13.355469 L 5.621094 13.355469 Z M 5.621094 14.015625 "/>
<path style=" stroke:none;fill-rule:nonzero;fill:url(#radial1);" d="M 4.300781 14.015625 L 2.976562 14.015625 L 2.976562 14.679688 L 4.300781 14.679688 Z M 4.300781 14.015625 "/>
<path style=" stroke:none;fill-rule:nonzero;fill:url(#radial2);" d="M 4.300781 14.015625 L 2.976562 14.015625 L 2.976562 13.355469 L 4.300781 13.355469 Z M 4.300781 14.015625 "/>
<path style=" stroke:none;fill-rule:nonzero;fill:url(#radial3);" d="M 5.621094 14.015625 L 6.945312 14.015625 L 6.945312 14.679688 L 5.621094 14.679688 Z M 5.621094 14.015625 "/>
<path style=" stroke:none;fill-rule:nonzero;fill:url(#linear1);" d="M 4.9375 1.453125 C 4.730469 1.457031 4.539062 1.5625 4.421875 1.734375 L 1.441406 6.035156 C 1.140625 6.472656 1.453125 7.066406 1.984375 7.066406 L 3.3125 7.066406 L 3.3125 13.355469 C 3.3125 13.71875 3.605469 14.015625 3.96875 14.015625 L 5.953125 14.015625 C 6.316406 14.015625 6.613281 13.71875 6.613281 13.355469 L 6.613281 7.066406 L 7.9375 7.066406 C 8.46875 7.066406 8.78125 6.472656 8.480469 6.035156 L 5.503906 1.734375 C 5.375 1.550781 5.164062 1.445312 4.9375 1.453125 Z M 4.9375 1.453125 "/>
<path style=" stroke:none;fill-rule:nonzero;fill:url(#linear2);" d="M 10.894531 14.011719 C 10.6875 14.007812 10.496094 13.902344 10.375 13.730469 L 7.398438 9.429688 C 7.097656 8.992188 7.410156 8.398438 7.941406 8.398438 L 9.265625 8.398438 L 9.265625 2.109375 C 9.269531 1.746094 9.5625 1.453125 9.925781 1.453125 L 11.910156 1.453125 C 12.273438 1.453125 12.570312 1.746094 12.570312 2.109375 L 12.570312 8.398438 L 13.894531 8.398438 C 14.425781 8.398438 14.738281 8.992188 14.4375 9.429688 L 11.460938 13.730469 C 11.332031 13.914062 11.121094 14.019531 10.894531 14.011719 Z M 10.894531 14.011719 "/>
<path style=" stroke:none;fill-rule:nonzero;fill:rgb(100%,100%,100%);fill-opacity:0.392157;" d="M 4.960938 1.453125 C 4.953125 1.453125 4.945312 1.453125 4.9375 1.453125 C 4.730469 1.457031 4.539062 1.5625 4.421875 1.734375 L 1.441406 6.035156 C 1.335938 6.191406 1.304688 6.367188 1.335938 6.53125 C 1.351562 6.445312 1.386719 6.359375 1.441406 6.277344 L 4.421875 1.980469 C 4.539062 1.808594 4.730469 1.703125 4.9375 1.695312 C 5.164062 1.6875 5.375 1.796875 5.503906 1.980469 L 8.480469 6.277344 C 8.535156 6.359375 8.570312 6.445312 8.585938 6.53125 C 8.617188 6.367188 8.585938 6.191406 8.480469 6.035156 L 5.503906 1.734375 C 5.378906 1.554688 5.175781 1.449219 4.960938 1.453125 Z M 4.960938 1.453125 "/>
<path style=" stroke:none;fill-rule:nonzero;fill:rgb(100%,100%,100%);fill-opacity:0.313726;" d="M 9.925781 1.453125 C 9.5625 1.453125 9.269531 1.746094 9.265625 2.109375 L 9.265625 2.355469 C 9.269531 1.992188 9.5625 1.695312 9.925781 1.695312 L 11.910156 1.695312 C 12.273438 1.695312 12.570312 1.992188 12.570312 2.355469 L 12.570312 2.109375 C 12.570312 1.746094 12.273438 1.453125 11.910156 1.453125 Z M 7.941406 8.398438 C 7.507812 8.398438 7.21875 8.796875 7.292969 9.179688 C 7.347656 8.886719 7.601562 8.640625 7.941406 8.640625 L 9.265625 8.640625 L 9.265625 8.398438 Z M 12.570312 8.398438 L 12.570312 8.640625 L 13.894531 8.640625 C 14.234375 8.640625 14.488281 8.886719 14.542969 9.179688 C 14.617188 8.796875 14.328125 8.398438 13.894531 8.398438 Z M 12.570312 8.398438 "/>
<path style=" stroke:none;fill-rule:nonzero;fill:rgb(0%,0%,0%);fill-opacity:0.235294;" d="M 1.347656 6.246094 C 1.242188 6.640625 1.535156 7.066406 1.984375 7.066406 L 3.3125 7.066406 L 3.3125 6.742188 L 1.984375 6.742188 C 1.660156 6.742188 1.417969 6.515625 1.347656 6.246094 Z M 8.578125 6.246094 C 8.507812 6.515625 8.261719 6.742188 7.9375 6.742188 L 6.613281 6.742188 L 6.613281 7.066406 L 7.9375 7.066406 C 8.386719 7.066406 8.679688 6.640625 8.578125 6.246094 Z M 3.3125 13.027344 L 3.3125 13.355469 C 3.3125 13.71875 3.605469 14.015625 3.96875 14.015625 L 5.953125 14.015625 C 6.316406 14.015625 6.613281 13.71875 6.613281 13.355469 L 6.613281 13.027344 C 6.613281 13.390625 6.316406 13.6875 5.953125 13.6875 L 3.96875 13.6875 C 3.605469 13.6875 3.3125 13.390625 3.3125 13.027344 Z M 3.3125 13.027344 "/>
<path style=" stroke:none;fill-rule:nonzero;fill:rgb(0%,0%,0%);fill-opacity:0.235294;" d="M 7.304688 8.894531 C 7.257812 9.066406 7.28125 9.261719 7.398438 9.429688 L 10.375 13.730469 C 10.496094 13.902344 10.6875 14.007812 10.894531 14.011719 C 11.121094 14.019531 11.332031 13.914062 11.460938 13.730469 L 14.4375 9.429688 C 14.554688 9.261719 14.578125 9.066406 14.535156 8.894531 C 14.515625 8.964844 14.484375 9.035156 14.4375 9.101562 L 11.460938 13.402344 C 11.332031 13.585938 11.121094 13.695312 10.894531 13.6875 C 10.6875 13.679688 10.496094 13.574219 10.375 13.402344 L 7.398438 9.101562 C 7.355469 9.035156 7.320312 8.964844 7.304688 8.894531 Z M 7.304688 8.894531 "/>
<path style="fill:none;stroke-width:3;stroke-linecap:round;stroke-linejoin:round;stroke:rgb(12.941177%,12.941177%,12.941177%);stroke-opacity:1;stroke-miterlimit:4;" d="M 157.984913 -168.50444 C 151.360546 -168.379452 145.236131 -165.004774 141.486489 -159.505299 L 46.120596 -21.893441 C 36.496515 -7.894778 46.49556 11.103408 63.493937 11.103408 L 105.989878 11.103408 L 105.989878 212.334192 C 105.989878 223.958082 115.363983 233.457174 126.987873 233.457174 L 190.48181 233.457174 C 202.1057 233.457174 211.604793 223.958082 211.604793 212.334192 L 211.604793 11.103408 L 253.975747 11.103408 C 270.974123 11.103408 280.973168 -7.894778 271.349087 -21.893441 L 176.108183 -159.505299 C 171.983576 -165.379738 165.234221 -168.754416 157.984913 -168.50444 Z M 157.984913 -168.50444 " transform="matrix(0.031253,0,0,0.031253,0,6.719392)"/>
<path style="fill:none;stroke-width:3;stroke-linecap:round;stroke-linejoin:round;stroke:rgb(12.941177%,12.941177%,12.941177%);stroke-opacity:1;stroke-miterlimit:4;" d="M 348.591711 233.332186 C 341.967344 233.207198 335.842929 229.832521 331.968299 224.333046 L 236.727394 86.721187 C 227.103313 72.722524 237.102358 53.724338 254.100735 53.724338 L 296.471688 53.724338 L 296.471688 -147.506445 C 296.596676 -159.130335 305.970781 -168.50444 317.594671 -168.50444 L 381.088608 -168.50444 C 392.712498 -168.50444 402.211591 -159.130335 402.211591 -147.506445 L 402.211591 53.724338 L 444.582544 53.724338 C 461.580921 53.724338 471.579966 72.722524 461.955885 86.721187 L 366.71498 224.333046 C 362.590374 230.207485 355.841019 233.582163 348.591711 233.332186 Z M 348.591711 233.332186 " transform="matrix(0.031253,0,0,0.031253,0,6.719392)"/>
<path style=" stroke:none;fill-rule:nonzero;fill:url(#radial4);" d="M 10.914062 14.015625 L 11.90625 14.015625 L 11.90625 13.355469 L 10.914062 13.355469 Z M 10.914062 14.015625 "/>
<path style=" stroke:none;fill-rule:nonzero;fill:url(#radial5);" d="M 10.914062 14.015625 L 9.921875 14.015625 L 9.921875 14.679688 L 10.914062 14.679688 Z M 10.914062 14.015625 "/>
<path style=" stroke:none;fill-rule:nonzero;fill:url(#radial6);" d="M 10.914062 14.015625 L 9.921875 14.015625 L 9.921875 13.355469 L 10.914062 13.355469 Z M 10.914062 14.015625 "/>
<path style=" stroke:none;fill-rule:nonzero;fill:url(#radial7);" d="M 10.914062 14.015625 L 11.90625 14.015625 L 11.90625 14.679688 L 10.914062 14.679688 Z M 10.914062 14.015625 "/>
</g>
</svg>
